images/ICONOS/VALORES/INNOVACIÓN ICON.svg

<svg width="33" height="46" viewBox="0 0 33 46" fill="none" xmlns="http://www.w3.org/2000/svg">
<path d="M23.6438 38.9606C23.6259 39.3484 23.648 39.7486 23.5831 40.1337C23.4493 40.9231 23.0216 41.5364 22.3 41.9022C22.0489 42.0301 21.9647 42.1676 21.9606 42.4468C21.9316 44.3364 20.7202 45.5136 18.8245 45.515C17.0488 45.5163 15.2718 45.5177 13.4961 45.515C11.6376 45.5122 10.4152 44.313 10.3697 42.4743C10.3655 42.3038 10.2814 42.0508 10.1531 41.982C9.13345 41.4292 8.6809 40.5793 8.72229 39.442C8.72643 39.3223 8.72229 39.2013 8.71816 39.0816C8.71678 39.0486 8.70574 39.0156 8.72919 39.1325C8.22284 38.7929 7.68751 38.5976 7.43089 38.2166C7.16874 37.8288 7.14667 37.2608 7.07768 36.7644C7.02663 36.3931 7.04319 36.0066 7.0763 35.6326C7.09976 35.3658 7.12183 35.0302 7.28464 34.8556C7.93586 34.1597 7.68889 33.3277 7.64336 32.5603C7.62405 32.2234 7.27636 31.826 6.97145 31.599C4.09752 29.4537 2.06797 26.7046 0.911771 23.3202C-1.92353 15.0207 2.05831 5.81767 10.0178 2.25308C16.3231 -0.570258 23.9184 1.31518 28.4011 6.81608C34.6636 14.4995 33.2921 25.6663 25.3505 31.5935C24.8649 31.9566 24.611 32.387 24.6565 32.9949C24.6731 33.2177 24.6676 33.4418 24.6579 33.6646C24.6414 34.0456 24.691 34.3742 24.9628 34.7029C25.1615 34.945 25.2277 35.3273 25.2691 35.6573C25.3188 36.0644 25.2815 36.4811 25.2815 36.8937C25.2788 38.1534 24.8925 38.6457 23.6438 38.9606ZM23.0023 33.9411C23.0023 33.6426 23.0161 33.402 22.9995 33.164C22.9167 31.8851 23.4507 30.9486 24.4717 30.1729C31.373 24.9278 32.7044 15.3012 27.5153 8.36046C24.0164 3.67919 18.085 1.5861 12.6186 3.07547C5.43721 5.03379 0.426113 12.5522 1.94931 20.7251C2.69297 24.7147 4.76805 27.9148 8.05038 30.3201C8.92373 30.9596 9.36662 31.7916 9.34454 32.8711C9.33765 33.2246 9.34316 33.5794 9.34316 33.9397C13.9238 33.9411 18.4354 33.9411 23.0023 33.9411ZM23.6011 35.6505C18.6203 35.6505 13.6851 35.6505 8.74713 35.6505C8.74713 36.1964 8.74713 36.7053 8.74713 37.2361C13.7072 37.2361 18.6424 37.2361 23.6011 37.2361C23.6011 36.6998 23.6011 36.1909 23.6011 35.6505ZM10.3793 38.9304C10.3793 39.2192 10.3697 39.4585 10.3807 39.6964C10.4069 40.2396 10.7118 40.5573 11.2651 40.5586C14.5364 40.5669 17.809 40.5669 21.0803 40.5586C21.6322 40.5573 21.9371 40.2382 21.9634 39.6936C21.9758 39.4447 21.9647 39.1944 21.9647 38.9304C18.0809 38.9304 14.2632 38.9304 10.3793 38.9304ZM20.2815 42.246C17.5138 42.246 14.7847 42.246 12.0584 42.246C11.9894 43.3297 12.4765 43.8619 13.5182 43.8647C15.2911 43.8674 17.0626 43.8674 18.8356 43.8647C19.8717 43.8619 20.367 43.3146 20.2815 42.246Z" fill="url(#paint0_linear_1_2813)"/>
<path d="M17.0005 24.1687C17.0005 23.1895 16.9964 22.2104 17.0019 21.2312C17.0061 20.4487 17.3951 20.1283 18.154 20.2644C19.5337 20.5106 20.8141 19.7006 21.1935 18.3391C21.6722 16.6228 20.7506 14.9781 19.0908 14.6356C18.7997 14.5751 18.4754 14.6109 18.1761 14.6604C17.4062 14.7841 17.0047 14.4816 17.0019 13.7128C16.9964 11.738 16.9978 9.76182 17.0019 7.78699C17.0033 7.12551 17.2489 6.83534 17.9084 6.77345C19.0867 6.66206 20.2456 6.79545 21.3839 7.11863C21.8268 7.24515 22.0323 7.54083 22.0572 7.98228C22.0585 7.99878 22.0613 8.01803 22.0572 8.03316C21.7674 9.2021 22.438 9.8017 23.3844 10.217C23.5459 10.2885 23.7597 10.2473 23.9487 10.2459C23.9929 10.2459 24.0371 10.1964 24.0798 10.1689C25.403 9.30387 25.5451 9.352 26.5481 10.6241C27.4863 11.815 28.1293 13.1476 28.5211 14.6109C28.6577 15.1211 28.5597 15.5433 28.0837 15.7358C27.1717 16.1085 26.9469 16.7218 26.9841 17.6804C27.0103 18.3515 27.2035 18.676 27.7498 18.9786C28.6908 19.4998 28.717 19.6442 28.4121 20.6784C27.9444 22.2695 27.1469 23.6777 26.0321 24.9058C25.5768 25.4078 25.2098 25.5068 24.6841 25.1038C24.0053 24.5854 23.4521 24.5565 22.7291 25.075C22.2517 25.4174 21.9689 25.7089 22.0517 26.2989C22.082 26.5176 22.0668 26.7459 22.0517 26.9673C22.0241 27.3867 21.8226 27.6714 21.4018 27.7938C20.2649 28.1238 19.1087 28.2614 17.9291 28.1541C17.2447 28.0922 17.0033 27.8048 17.0019 27.1062C16.9978 26.127 17.0005 25.1479 17.0005 24.1687ZM25.2333 23.3889C25.5837 22.788 26.0073 22.1416 26.3494 21.4554C26.8848 20.3813 26.8737 20.3511 25.8555 19.7501C25.3698 19.4627 25.2029 19.0982 25.2746 18.555C25.3381 18.0806 25.4499 17.5717 25.3436 17.1234C25.0718 15.9668 25.4168 15.1995 26.526 14.7511C26.6281 14.7099 26.7302 14.4307 26.6888 14.3097C26.3425 13.2783 25.8348 12.3307 25.1284 11.5001C23.6673 12.2248 23.4659 12.2125 22.071 11.3392C21.9978 11.2938 21.9261 11.2457 21.8488 11.2086C20.8637 10.7424 20.3353 9.99973 20.3919 8.87892C20.3974 8.76478 20.2787 8.55437 20.1932 8.53924C19.6965 8.45535 19.1915 8.41822 18.681 8.36321C18.681 9.9351 18.681 11.408 18.681 12.8767C21.4473 13.3745 22.9016 14.923 22.9429 17.3599C22.9623 18.4849 22.678 19.4998 21.9606 20.3786C21.1203 21.4086 20.0042 21.9119 18.6879 22.0165C18.6879 23.5306 18.6879 25.0158 18.6879 26.5616C19.1832 26.5093 19.6468 26.4859 20.0966 26.3979C20.218 26.3746 20.3546 26.171 20.3905 26.028C20.4802 25.6663 20.4526 25.2661 20.585 24.9251C20.9327 24.0298 22.8671 22.8306 23.8218 22.9365C24.2688 22.9887 24.6952 23.2115 25.2333 23.3889Z" fill="url(#paint1_linear_1_2813)"/>
<path d="M4.60111 17.7959C3.85055 16.7438 3.54563 15.5859 3.91126 14.3014C4.23273 13.1738 4.9143 12.3266 5.92011 11.7229C6.0636 11.6363 6.2333 11.4286 6.22778 11.2828C6.15052 9.17872 7.75236 7.35105 9.99439 6.87384C11.8956 6.46815 13.5899 6.90822 14.9738 8.30545C15.1779 8.51174 15.3297 8.87342 15.3297 9.1636C15.3504 14.6975 15.349 20.23 15.3325 25.764C15.3311 26.0294 15.2193 26.3539 15.0441 26.5492C12.9994 28.8417 8.93753 28.7111 7.11908 26.2632C6.7231 25.7309 6.56029 25.0296 6.28159 24.4094C6.20985 24.2512 6.14224 24.0518 6.01117 23.9665C3.62841 22.4015 3.14552 20.3401 4.60111 17.7959ZM10.3517 14.2065C9.22175 14.3509 8.15386 14.3908 7.43365 13.3099C7.3964 13.2535 7.34535 13.1861 7.28602 13.1696C7.15633 13.1311 6.99628 13.0637 6.88728 13.1064C5.79042 13.5354 5.15299 15.0111 5.55863 16.1195C5.71453 16.5472 5.93253 16.7892 6.46096 16.7466C7.206 16.6875 7.95794 16.7315 8.69056 16.7315C8.69056 17.3256 8.69056 17.8344 8.69056 18.3817C8.02416 18.3817 7.38674 18.3529 6.75621 18.3969C6.51338 18.4134 6.22089 18.5385 6.05808 18.7118C5.0978 19.7336 5.26337 21.2711 6.38369 22.22C6.77001 22.5459 7.12045 22.6862 7.54264 22.286C8.36081 21.5131 9.35972 21.6479 10.3517 21.7194C10.3517 22.2654 10.3517 22.7742 10.3517 23.3339C9.95162 23.3339 9.57633 23.3216 9.20243 23.3367C8.21042 23.3766 7.79651 24.0903 8.26285 24.9388C9.20105 26.6468 11.5879 27.0952 13.3209 25.8987C13.5844 25.7172 13.7003 25.5178 13.7003 25.1809C13.6879 20.0265 13.6961 14.8735 13.6768 9.71919C13.6754 9.49365 13.514 9.19247 13.3305 9.05908C12.4668 8.42785 11.4845 8.24494 10.4373 8.47186C9.22865 8.73315 8.31528 9.3465 7.9607 10.5993C7.82549 11.0807 7.93034 11.4533 8.28769 11.8549C8.79818 12.4311 9.3473 12.7378 10.1186 12.6113C10.1931 12.5989 10.2772 12.636 10.3531 12.6484C10.3517 13.1875 10.3517 13.695 10.3517 14.2065Z" fill="url(#paint2_linear_1_2813)"/>
<path d="M11.2292 14.2286C11.2292 13.6895 11.2292 13.1834 11.2292 12.6415C11.759 12.6415 12.2792 12.6415 12.8311 12.6415C12.8311 13.1641 12.8311 13.6826 12.8311 14.2286C12.304 14.2286 11.7963 14.2286 11.2292 14.2286Z" fill="url(#paint3_linear_1_2813)"/>
<path d="M9.57082 18.357C9.57082 17.811 9.57082 17.3036 9.57082 16.7645C10.1075 16.7645 10.6277 16.7645 11.1782 16.7645C11.1782 17.2939 11.1782 17.8138 11.1782 18.357C10.6442 18.357 10.1365 18.357 9.57082 18.357Z" fill="url(#paint4_linear_1_2813)"/>
<path d="M12.8186 23.3119C12.2902 23.3119 11.7825 23.3119 11.2403 23.3119C11.2403 22.777 11.2403 22.2585 11.2403 21.7112C11.7577 21.7112 12.2668 21.7112 12.8186 21.7112C12.8186 22.2159 12.8186 22.7343 12.8186 23.3119Z" fill="url(#paint5_linear_1_2813)"/>
<defs>
<linearGradient id="paint0_linear_1_2813" x1="0" y1="45.5176" x2="32.3309" y2="45.5176" gradientUnits="userSpaceOnUse">
<stop stop-color="#1723FF"/>
<stop offset="1" stop-color="#30E35E"/>
</linearGradient>
<linearGradient id="paint1_linear_1_2813" x1="0" y1="45.5176" x2="32.3309" y2="45.5176" gradientUnits="userSpaceOnUse">
<stop stop-color="#1723FF"/>
<stop offset="1" stop-color="#30E35E"/>
</linearGradient>
<linearGradient id="paint2_linear_1_2813" x1="0" y1="45.5176" x2="32.3309" y2="45.5176" gradientUnits="userSpaceOnUse">
<stop stop-color="#1723FF"/>
<stop offset="1" stop-color="#30E35E"/>
</linearGradient>
<linearGradient id="paint3_linear_1_2813" x1="0" y1="45.5176" x2="32.3309" y2="45.5176" gradientUnits="userSpaceOnUse">
<stop stop-color="#1723FF"/>
<stop offset="1" stop-color="#30E35E"/>
</linearGradient>
<linearGradient id="paint4_linear_1_2813" x1="0" y1="45.5176" x2="32.3309" y2="45.5176" gradientUnits="userSpaceOnUse">
<stop stop-color="#1723FF"/>
<stop offset="1" stop-color="#30E35E"/>
</linearGradient>
<linearGradient id="paint5_linear_1_2813" x1="0" y1="45.5176" x2="32.3309" y2="45.5176" gradientUnits="userSpaceOnUse">
<stop stop-color="#1723FF"/>
<stop offset="1" stop-color="#30E35E"/>
</linearGradient>
</defs>
</svg>

<svg xmlns="http://www.w3.org/2000/svg" width="33" height="46" fill="none"><path fill="url(#a)" d="M23.644 38.96c-.018.388.004.789-.06 1.174-.135.79-.562 1.402-1.284 1.768-.251.128-.335.266-.34.545-.028 1.89-1.24 3.067-3.136 3.068-1.775.001-3.552.003-5.328 0-1.858-.003-3.08-1.202-3.126-3.04-.004-.171-.089-.424-.217-.493-1.02-.553-1.472-1.403-1.43-2.54.003-.12 0-.24-.005-.36-.001-.033-.012-.066.011.05-.506-.34-1.041-.534-1.298-.915-.262-.388-.284-.956-.353-1.453a5.09 5.09 0 0 1-.002-1.131c.024-.267.046-.603.209-.777.65-.696.404-1.528.358-2.296-.019-.337-.367-.734-.672-.961-2.873-2.145-4.903-4.894-6.06-8.279-2.835-8.3 1.147-17.502 9.107-21.067 6.305-2.823 13.9-.938 18.383 4.563 6.263 7.683 4.891 18.85-3.05 24.777-.486.364-.74.794-.694 1.402.016.223.01.447 0 .67-.016.38.034.71.306 1.038.198.242.265.624.306.954.05.407.013.824.013 1.237-.003 1.26-.39 1.752-1.638 2.067Zm-.642-5.019c0-.298.014-.539-.002-.777-.083-1.279.45-2.215 1.472-2.991 6.901-5.245 8.232-14.872 3.043-21.813-3.499-4.68-9.43-6.774-14.896-5.285C5.437 5.034.426 12.552 1.949 20.725c.744 3.99 2.819 7.19 6.101 9.595.874.64 1.317 1.472 1.295 2.551-.007.354-.002.708-.002 1.069l13.66.001Zm.6 1.71H8.746v1.585h14.854v-1.585Zm-13.223 3.28c0 .288-.01.528.002.765.026.544.33.861.884.863 3.271.008 6.544.008 9.815 0 .552-.002.857-.32.883-.865.013-.25.002-.5.002-.764H10.379Zm9.903 3.315h-8.224c-.069 1.084.418 1.616 1.46 1.619 1.773.002 3.545.002 5.318 0 1.036-.003 1.531-.55 1.446-1.619Z"/><path fill="url(#b)" d="M17 24.169c0-.98-.004-1.959.002-2.938.004-.782.393-1.103 1.152-.967 1.38.247 2.66-.563 3.04-1.925.478-1.716-.443-3.36-2.103-3.703-.291-.06-.616-.025-.915.024-.77.124-1.171-.178-1.174-.947a1219.28 1219.28 0 0 1 0-5.926c.001-.661.247-.952.906-1.014 1.179-.11 2.338.022 3.476.346.443.126.648.422.673.863.002.017.004.036 0 .051-.29 1.17.381 1.769 1.327 2.184.162.072.376.03.565.029.044 0 .088-.05.13-.077 1.324-.865 1.466-.817 2.47.455.937 1.191 1.58 2.524 1.972 3.987.137.51.039.932-.437 1.125-.912.372-1.137.986-1.1 1.944.026.672.22.996.766 1.299.94.52.967.665.662 1.7-.468 1.59-1.265 2.999-2.38 4.227-.455.502-.822.6-1.348.198-.679-.519-1.232-.547-1.955-.029-.477.342-.76.634-.677 1.224.03.219.015.447 0 .668-.028.42-.23.704-.65.827-1.137.33-2.293.467-3.473.36-.684-.062-.926-.35-.927-1.048-.004-.979-.002-1.958-.002-2.937Zm8.233-.78c.35-.601.774-1.247 1.116-1.934.536-1.074.525-1.104-.494-1.705-.485-.287-.652-.652-.58-1.195.063-.474.175-.983.069-1.432-.272-1.156.073-1.924 1.182-2.372.102-.041.204-.32.163-.441-.346-1.032-.854-1.98-1.56-2.81-1.462.725-1.663.713-3.058-.16-.073-.046-.145-.094-.222-.131-.985-.467-1.514-1.21-1.457-2.33.005-.114-.113-.325-.199-.34-.497-.084-1.002-.12-1.512-.176v4.514c2.766.497 4.22 2.046 4.262 4.483.02 1.125-.265 2.14-.982 3.019-.84 1.03-1.957 1.533-3.273 1.637v4.546c.495-.053.959-.076 1.409-.164.121-.023.258-.227.293-.37.09-.362.063-.762.195-1.103.348-.895 2.282-2.094 3.237-1.989.447.053.873.276 1.411.453Z"/><path fill="url(#c)" d="M4.601 17.796c-.75-1.052-1.055-2.21-.69-3.495.322-1.127 1.003-1.974 2.01-2.578.143-.087.312-.294.307-.44-.077-2.104 1.524-3.932 3.766-4.41 1.902-.405 3.596.035 4.98 1.432.204.207.356.568.356.859.02 5.534.019 11.066.002 16.6a1.28 1.28 0 0 1-.288.785C13 28.842 8.938 28.711 7.12 26.263c-.396-.532-.559-1.233-.837-1.854-.072-.158-.14-.357-.27-.442-2.384-1.566-2.866-3.627-1.41-6.171Zm5.75-3.59c-1.13.145-2.197.185-2.917-.896-.038-.056-.089-.124-.148-.14-.13-.039-.29-.106-.399-.064-1.097.43-1.734 1.905-1.328 3.013.156.428.374.67.902.628.745-.06 1.497-.015 2.23-.015v1.65c-.667 0-1.304-.03-1.935.015a1.145 1.145 0 0 0-.698.315c-.96 1.022-.795 2.56.326 3.508.386.326.736.466 1.159.066.818-.773 1.817-.638 2.809-.567v1.615c-.4 0-.776-.012-1.15.003-.992.04-1.405.753-.94 1.602.939 1.708 3.326 2.156 5.059.96.263-.182.38-.381.38-.718-.013-5.155-.005-10.308-.024-15.462-.002-.225-.163-.527-.346-.66-.864-.631-1.846-.814-2.894-.587-1.208.261-2.122.875-2.476 2.127-.136.482-.03.854.327 1.256.51.576 1.06.883 1.83.756.075-.012.16.025.235.037l-.001 1.559Z"/><path fill="url(#d)" d="M11.23 14.229v-1.587h1.601v1.587H11.23Z"/><path fill="url(#e)" d="M9.57 18.357v-1.592h1.608v1.592H9.571Z"/><path fill="url(#f)" d="M12.819 23.312H11.24v-1.6h1.579v1.6Z"/><defs><linearGradient id="a" x1="0" x2="32.331" y1="45.518" y2="45.518" gradientUnits="userSpaceOnUse"><stop stop-color="#1723FF"/><stop offset="1" stop-color="#30E35E"/></linearGradient><linearGradient id="b" x1="0" x2="32.331" y1="45.518" y2="45.518" gradientUnits="userSpaceOnUse"><stop stop-color="#1723FF"/><stop offset="1" stop-color="#30E35E"/></linearGradient><linearGradient id="c" x1="0" x2="32.331" y1="45.518" y2="45.518" gradientUnits="userSpaceOnUse"><stop stop-color="#1723FF"/><stop offset="1" stop-color="#30E35E"/></linearGradient><linearGradient id="d" x1="0" x2="32.331" y1="45.518" y2="45.518" gradientUnits="userSpaceOnUse"><stop stop-color="#1723FF"/><stop offset="1" stop-color="#30E35E"/></linearGradient><linearGradient id="e" x1="0" x2="32.331" y1="45.518" y2="45.518" gradientUnits="userSpaceOnUse"><stop stop-color="#1723FF"/><stop offset="1" stop-color="#30E35E"/></linearGradient><linearGradient id="f" x1="0" x2="32.331" y1="45.518" y2="45.518" gradientUnits="userSpaceOnUse"><stop stop-color="#1723FF"/><stop offset="1" stop-color="#30E35E"/></linearGradient></defs></svg>
